common/svg/youtube-icon.svg

<svg fill="none" height="20" viewBox="0 0 21 20" width="21" xmlns="http://www.w3.org/2000/svg"><path d="m11.0639 2.49829c.0072.00002.0148.00003.023.00005l.0885.00028c1.0273.00377 6.2337.04151 7.6374.4189.8605.2308 1.5382.911 1.7682 1.77442.1266.47437.2148 1.10486.2763 1.75331l.012.12988c.0096.10837.0186.21699.0269.3252l.0096.12963c.0821 1.14263.0917 2.21189.0928 2.44583l.0002.03156v.0068.01772.00681l-.0002.03156c-.0011.24278-.0114 1.38516-.1024 2.57556l-.0103.13-.0109.1301c-.0619.7157-.1548 1.4264-.294 1.9482-.23.8634-.9077 1.5438-1.7682 1.7744-1.4505.3901-6.9614.4174-7.7259.4193l-.0588.0002c-.0048 0-.0091 0-.0127 0h-.0241s-.0055 0-.0091 0l-.0716-.0002c-.3863-.0009-1.98489-.0084-3.65898-.0659l-.21404-.0076c-.03571-.0013-.07143-.0026-.10716-.004l-.21428-.0085-.21379-.009c-1.38688-.0609-2.7092-.1607-3.31749-.3243-.86052-.2306-1.53815-.911-1.76814-1.7744-.13933-.5218-.23222-1.2325-.29414-1.9482l-.01092-.1301-.01026-.13c-.08777-1.1471-.10051-2.24964-.102361-2.54555l-.000221-.04236c-.000015-.00381-.000028-.00732-.000039-.01053v-.0487c.000011-.0032.000024-.00671.000039-.01053l.000221-.04235c.001671-.26799.012281-1.19753.079471-2.22263l.00869-.1286c.0015-.0215.00303-.04303.00458-.06459l.00962-.12963c.00828-.10821.01722-.21683.02689-.3252l.01196-.12988c.06153-.64845.14981-1.27894.27647-1.75331.22999-.86342.90762-1.54362 1.76814-1.77442.60829-.16354 1.93061-.26329 3.31749-.32414l.21379-.00906.21428-.00846c.03573-.00137.07145-.00271.10716-.00402l.21404-.00761c1.56723-.0538 3.06828-.06377 3.57048-.06561l.0885-.00028c.0082-.00002.0159-.00003.023-.00005zm-2.06508 4.01399v6.02142l5.19588-3.01052z" fill="#000"/></svg>

<svg width="21" height="20" viewBox="0 0 21 20" fill="none" xmlns="http://www.w3.org/2000/svg">
<path d="M11.0639 2.49829C11.0711 2.49831 11.0787 2.49832 11.0869 2.49834L11.1754 2.49862C12.2027 2.50239 17.4091 2.54013 18.8128 2.91752C19.6733 3.14832 20.351 3.82852 20.581 4.69194C20.7076 5.16631 20.7958 5.7968 20.8573 6.44525L20.8693 6.57513C20.8789 6.6835 20.8879 6.79212 20.8962 6.90033L20.9058 7.02996C20.9879 8.17259 20.9975 9.24185 20.9986 9.47579L20.9988 9.50735C20.9988 9.50993 20.9988 9.51415 20.9988 9.51415V9.53187C20.9988 9.53187 20.9988 9.5361 20.9988 9.53868L20.9986 9.57024C20.9975 9.81302 20.9872 10.9554 20.8962 12.1458L20.8859 12.2758L20.875 12.4059C20.8131 13.1216 20.7202 13.8323 20.581 14.3541C20.351 15.2175 19.6733 15.8979 18.8128 16.1285C17.3623 16.5186 11.8514 16.5459 11.0869 16.5478L11.0281 16.548C11.0233 16.548 11.019 16.548 11.0154 16.548L10.9913 16.548C10.9913 16.548 10.9858 16.548 10.9822 16.548L10.9106 16.5478C10.5243 16.5469 8.92571 16.5394 7.25162 16.4819L7.03758 16.4743C7.00187 16.473 6.96615 16.4717 6.93042 16.4703L6.71614 16.4618L6.50235 16.4528C5.11547 16.3919 3.79315 16.2921 3.18486 16.1285C2.32434 15.8979 1.64671 15.2175 1.41672 14.3541C1.27739 13.8323 1.1845 13.1216 1.12258 12.4059L1.11166 12.2758L1.1014 12.1458C1.01363 10.9987 1.00089 9.89616 0.999039 9.60025L0.998818 9.55789C0.998803 9.55408 0.99879 9.55057 0.998779 9.54736V9.49866C0.99879 9.49546 0.998803 9.49195 0.998818 9.48813L0.999039 9.44578C1.00071 9.17779 1.01132 8.24825 1.07851 7.22315L1.0872 7.09455C1.0887 7.07305 1.09023 7.05152 1.09178 7.02996L1.1014 6.90033C1.10968 6.79212 1.11862 6.6835 1.12829 6.57513L1.14025 6.44525C1.20178 5.7968 1.29006 5.16631 1.41672 4.69194C1.64671 3.82852 2.32434 3.14832 3.18486 2.91752C3.79315 2.75398 5.11547 2.65423 6.50235 2.59338L6.71614 2.58432L6.93042 2.57586C6.96615 2.57449 7.00187 2.57315 7.03758 2.57184L7.25162 2.56423C8.81885 2.51043 10.3199 2.50046 10.8221 2.49862L10.9106 2.49834C10.9188 2.49832 10.9265 2.49831 10.9336 2.49829H11.0639ZM8.99882 6.51228V12.5337L14.1947 9.52318L8.99882 6.51228Z" fill="black"/>
</svg>
